public/ember-cli-visualeditor/styles/themes/apex/images/icons/translation-rtl.svg

<?xml version="1.0" encoding="utf-8"?>
<svg xmlns="http://www.w3.org/2000/svg" width="24" height="24" viewBox="0 0 24 24">
    <path d="M12.4 13.1c1.8-2.1 2.7-4.3 3-5.1h-4.7l-.7-2h5.5v-3h2v3h5v2h-5c.2.9 1.3 4.8 5.1 7.6l-1.2 1.6c-2.7-2-4.3-4.5-5.1-6.4-.7 1.3-1.7 3-3.2 4.5l-.7-2.2zm-1.4 6.9l-1.3-4h-5.3l-1.3 4h-2.2l4.6-14h3l4.7 14h-2.2zm-4-12l-2 6h4l-2-6z" id="path704"/>
</svg>

<?xml version="1.0" encoding="utf-8"?>
<svg xmlns="http://www.w3.org/2000/svg" width="24" height="24" viewBox="0 0 24 24">
    <path d="M12.4 13.1c1.8-2.1 2.7-4.3 3-5.1h-4.7L10 6h5.5V3h2v3h5v2h-5c.2.9 1.3 4.8 5.1 7.6l-1.2 1.6c-2.7-2-4.3-4.5-5.1-6.4-.7 1.3-1.7 3-3.2 4.5l-.7-2.2zM11 20l-1.3-4H4.4l-1.3 4H.9L5.5 6h3l4.7 14H11zM7 8l-2 6h4L7 8z" id="path704"/>
</svg>
